X: 24015
T: Logan's Fling
R: strathspey
M: 4/4
K: Edorian
|:B,<D|E2 B>A G<E E>F|D2 F>A D>A F<A|
E2 B>A G<EE>F|D>F A<F E2:|
B2|d<BB>d A<FF>A|d<BB<d e2 f>e|
d<BB>d A<FF>A|B/c/d A>F E2 B>c|
d<BB>d A<FF>A|d<BB<d e2 d>e|
f>ge>f d/c/B d>A|B/c/d A>F E2||

